packages/sources/assets/src/assets/flag-rw.svg

<svg width="28" height="20" viewBox="0 0 28 20" fill="none" xmlns="http://www.w3.org/2000/svg">
<rect width="28" height="20" rx="2" fill="white"/>
<mask id="mask0_503_3026" style="mask-type:alpha" maskUnits="userSpaceOnUse" x="0" y="0" width="28" height="20">
<rect width="28" height="20" rx="2" fill="white"/>
</mask>
<g mask="url(#mask0_503_3026)">
<g filter="url(#filter0_d_503_3026)">
<path fill-rule="evenodd" clip-rule="evenodd" d="M0 20H28V14.6667H0V20Z" fill="#2D754D"/>
</g>
<path fill-rule="evenodd" clip-rule="evenodd" d="M0 9.33333H28V0H0V9.33333Z" fill="#25B1EB"/>
<path fill-rule="evenodd" clip-rule="evenodd" d="M0 14.6667H28V9.33333H0V14.6667Z" fill="#FECB2F"/>
<path fill-rule="evenodd" clip-rule="evenodd" d="M21.3333 6L20.3128 7.13035L20.3905 5.60948L18.8696 5.68716L20 4.66667L18.8696 3.64618L20.3905 3.72386L20.3128 2.20299L21.3333 3.33333L22.3538 2.20299L22.2761 3.72386L23.797 3.64618L22.6667 4.66667L23.797 5.68716L22.2761 5.60948L22.3538 7.13035L21.3333 6Z" fill="#FECB2F"/>
</g>
<defs>
<filter id="filter0_d_503_3026" x="0" y="14.6667" width="28" height="5.33333" filterUnits="userSpaceOnUse" color-interpolation-filters="sRGB">
<feFlood flood-opacity="0" result="BackgroundImageFix"/>
<feColorMatrix in="SourceAlpha" type="matrix" values="0 0 0 0 0 0 0 0 0 0 0 0 0 0 0 0 0 0 127 0" result="hardAlpha"/>
<feOffset/>
<feColorMatrix type="matrix" values="0 0 0 0 0 0 0 0 0 0 0 0 0 0 0 0 0 0 0.06 0"/>
<feBlend mode="normal" in2="BackgroundImageFix" result="effect1_dropShadow_503_3026"/>
<feBlend mode="normal" in="SourceGraphic" in2="effect1_dropShadow_503_3026" result="shape"/>
</filter>
</defs>
</svg>

<svg width="28" height="20" fill="none" xmlns="http://www.w3.org/2000/svg"><rect width="28" height="20" rx="2" fill="#fff"/><mask id="a" style="mask-type:alpha" maskUnits="userSpaceOnUse" x="0" y="0" width="28" height="20"><rect width="28" height="20" rx="2" fill="#fff"/></mask><g mask="url(#a)"><g filter="url(#b)"><path fill-rule="evenodd" clip-rule="evenodd" d="M0 20h28v-5.333H0V20Z" fill="#2D754D"/></g><path fill-rule="evenodd" clip-rule="evenodd" d="M0 9.333h28V0H0v9.333Z" fill="#25B1EB"/><path fill-rule="evenodd" clip-rule="evenodd" d="M0 14.667h28V9.333H0v5.334ZM21.333 6l-1.02 1.13.078-1.52-1.521.077L20 4.667l-1.13-1.02 1.52.077-.077-1.521 1.02 1.13 1.02-1.13-.077 1.52 1.521-.077-1.13 1.02 1.13 1.021-1.52-.078.077 1.521L21.334 6Z" fill="#FECB2F"/></g><defs><filter id="b" x="0" y="14.667" width="28" height="5.333" filterUnits="userSpaceOnUse" color-interpolation-filters="sRGB"><feFlood flood-opacity="0" result="BackgroundImageFix"/><feColorMatrix in="SourceAlpha" values="0 0 0 0 0 0 0 0 0 0 0 0 0 0 0 0 0 0 127 0" result="hardAlpha"/><feOffset/><feColorMatrix values="0 0 0 0 0 0 0 0 0 0 0 0 0 0 0 0 0 0 0.06 0"/><feBlend in2="BackgroundImageFix" result="effect1_dropShadow_503_3026"/><feBlend in="SourceGraphic" in2="effect1_dropShadow_503_3026" result="shape"/></filter></defs></svg>
